; generated by Slic3r 1.2.9 on 2019-08-11 at 22:12:46

; external perimeters extrusion width = 0.50mm
; perimeters extrusion width = 0.50mm
; infill extrusion width = 0.50mm
; solid infill extrusion width = 0.50mm
; top infill extrusion width = 0.50mm

M107
M190 S0
M140 S0
M109 S210
G92 E0                  ;zero the extruded length
G1 F50 E9 ;extrude 3mm of feed stock
G1 X30 Y10 Z0 F1000
G1 X30 Y100 Z0 F2000
G1 X100 Y100 Z0 F5000
G92 E0                  ;zero the extruded length aa
G21 ; set units to millimeters
G90 ; use absolute coordinates
M82 ; use absolute distances for extrusion
G92 E0
G1 E-4.00000 F12000.00000
G92 E0
G1 Z0.200 F18000.000
G1 X77.025 Y140.834 F18000.000
G1 E4.00000 F12000.00000
G1 X78.340 Y140.116 E4.02618 F1200.000
G1 X79.824 Y139.338 E4.05545
G1 X81.602 Y138.454 E4.09013
G1 X83.400 Y137.623 E4.12472
G1 X85.070 Y136.921 E4.15635
G1 X86.883 Y136.224 E4.19028
G1 X88.600 Y135.614 E4.22210
G1 X90.419 Y135.024 E4.25549
G1 X92.300 Y134.476 E4.28971
G1 X94.045 Y134.024 E4.32119
G1 X95.843 Y133.617 E4.35340
G1 X97.736 Y133.253 E4.38705
G1 X99.623 Y132.954 E4.42043
G1 X101.287 Y132.742 E4.44973
G1 X103.305 Y132.550 E4.48513
G1 X105.017 Y132.440 E4.51510
G1 X106.730 Y132.379 E4.54503
G1 X108.696 Y132.364 E4.57937
G1 X110.656 Y132.408 E4.61360 F1200.000
G1 X112.380 Y132.490 E4.64374
G1 X114.188 Y132.620 E4.67541
G1 X115.914 Y132.783 E4.70568
G1 X117.607 Y132.978 E4.73544
G1 X119.591 Y133.247 E4.77041
G1 X121.334 Y133.519 E4.80123
G1 X123.192 Y133.843 E4.83417
G1 X124.886 Y134.167 E4.86429
G1 X126.770 Y134.567 E4.89792
G1 X128.840 Y135.103 E4.93526
G1 X130.876 Y135.741 E4.97252
G1 X132.532 Y136.336 E5.00326
G1 X134.190 Y137.006 E5.03450
G1 X136.066 Y137.847 E5.07040
G1 X137.907 Y138.763 E5.10632
G1 X139.448 Y139.595 E5.13691
G1 X141.042 Y140.523 E5.16911
G1 X142.786 Y141.614 E5.20504
G1 X144.233 Y142.581 E5.23543
G1 X145.748 Y143.653 E5.26785
G1 X147.225 Y144.759 E5.30007
G1 X148.596 Y145.840 E5.33056
G1 X150.159 Y147.135 E5.36601
G1 X151.449 Y148.257 E5.39588
G1 X152.793 Y149.479 E5.42761
G1 X154.108 Y150.727 E5.45926
G1 X155.394 Y152.000 E5.49086
G1 X156.653 Y153.298 E5.52244
G1 X157.883 Y154.618 E5.55397
G1 X159.086 Y155.962 E5.58546
G1 X160.235 Y157.296 E5.61621
G1 X161.411 Y158.717 E5.64844
G1 X162.534 Y160.131 E5.67996
G1 X163.631 Y161.571 E5.71158
G1 X164.700 Y163.039 E5.74330
G1 X165.740 Y164.538 E5.77516
G1 X166.751 Y166.074 E5.80727
G1 X167.733 Y167.661 E5.83987
G1 X168.823 Y169.585 E5.87849
G1 X169.575 Y171.064 E5.90746
G1 X170.404 Y172.845 E5.94178
G1 X171.141 Y174.495 E5.97333
G1 X171.845 Y176.155 E6.00483
G1 X172.515 Y177.836 E6.03643
G1 X173.132 Y179.506 E6.06752
G1 X173.725 Y181.264 E6.09992
G1 X174.232 Y182.941 E6.13054
G1 X174.759 Y184.918 E6.16627
G1 X175.203 Y186.891 E6.20159
G1 X175.529 Y188.620 E6.23232
G1 X175.786 Y190.299 E6.26198
G1 X176.033 Y192.410 E6.29910
G1 X176.175 Y194.143 E6.32947
G1 X176.271 Y196.076 E6.36326
G1 X176.305 Y198.155 E6.39958
G1 X176.305 Y201.845 E6.46403
G1 X176.278 Y203.666 E6.49584
G1 X176.183 Y205.743 E6.53216
G1 X176.019 Y207.733 E6.56702
G1 X175.815 Y209.488 E6.59788
G1 X175.568 Y211.141 E6.62707
G1 X175.186 Y213.197 E6.66360
G1 X174.728 Y215.204 E6.69954
G1 X174.274 Y216.914 E6.73044
G1 X173.751 Y218.651 E6.76213
G1 X173.118 Y220.531 E6.79677
G1 X172.528 Y222.130 E6.82654
G1 X171.876 Y223.770 E6.85737
G1 X171.159 Y225.464 E6.88949
G1 X170.447 Y227.060 E6.92001
G1 X169.525 Y229.035 E6.95808
G1 X168.666 Y230.707 E6.99091
G1 X167.850 Y232.140 E7.01970
G1 X166.869 Y233.741 E7.05251
G1 X165.773 Y235.414 E7.08743
G1 X164.779 Y236.849 E7.11791
G1 X163.708 Y238.324 E7.14976
G1 X162.614 Y239.766 E7.18136
G1 X161.409 Y241.286 E7.21525
G1 X160.273 Y242.659 E7.24638
G1 X159.078 Y244.047 E7.27836
G1 X157.910 Y245.352 E7.30893
G1 X156.685 Y246.668 E7.34035
G1 X155.479 Y247.914 E7.37062
G1 X154.232 Y249.152 E7.40132
G1 X152.943 Y250.381 E7.43242
G1 X151.615 Y251.594 E7.46383
G1 X150.248 Y252.789 E7.49555
G1 X148.839 Y253.964 E7.52759
G1 X147.388 Y255.115 E7.55993
G1 X146.012 Y256.153 E7.59004
G1 X144.369 Y257.325 E7.62528
G1 X142.799 Y258.377 E7.65829
G1 X141.320 Y259.308 E7.68881
G1 X139.448 Y260.403 E7.72669
G1 X137.854 Y261.265 E7.75833
G1 X136.277 Y262.051 E7.78911
G1 X134.320 Y262.939 E7.82664
G1 X132.560 Y263.653 E7.85981
G1 X130.889 Y264.254 E7.89083
G1 X128.686 Y264.939 E7.93113
G1 X126.777 Y265.431 E7.96556
G1 X125.059 Y265.799 E7.99624
G1 X123.275 Y266.142 E8.02796
G1 X121.593 Y266.438 E8.05780
G1 X119.826 Y266.718 E8.08903
G1 X118.100 Y266.959 E8.11949
G1 X116.226 Y267.184 E8.15244
G1 X114.329 Y267.368 E8.18573
G1 X112.646 Y267.493 E8.21521
G1 X110.637 Y267.593 E8.25034
G1 X108.852 Y267.634 E8.28152
G1 X107.105 Y267.628 E8.31203
G1 X105.220 Y267.569 E8.34497
G1 X103.183 Y267.441 E8.38061
G1 X101.086 Y267.234 E8.41741
G1 X99.349 Y267.007 E8.44801
G1 X97.568 Y266.717 E8.47952
G1 X95.520 Y266.313 E8.51598
G1 X93.898 Y265.939 E8.54506
G1 X92.170 Y265.488 E8.57624
G1 X90.331 Y264.948 E8.60971
G1 X88.471 Y264.341 E8.64388
G1 X86.859 Y263.767 E8.67377
G1 X85.211 Y263.135 E8.70459
G1 X83.313 Y262.337 E8.74055
G1 X81.718 Y261.602 E8.77123
G1 X80.022 Y260.763 E8.80427
G1 X78.532 Y259.986 E8.83363
G1 X76.891 Y259.093 E8.86625
G1 X75.416 Y258.260 E8.89583
G1 X72.496 Y256.541 E8.95501
G1 X69.480 Y254.679 E9.01692
G1 X26.979 Y227.983 E9.89348
G1 X26.519 Y227.665 E9.90325
G1 X25.168 Y226.302 E9.93676
G1 X24.368 Y224.877 E9.96531
G1 X24.147 Y224.247 E9.97698
G1 X23.971 Y223.650 E9.98784
G1 X23.794 Y222.881 E10.00162
G1 X23.701 Y221.776 E10.02099
G1 X23.730 Y178.366 E10.77914
G1 X23.793 Y177.279 E10.79816
G1 X23.861 Y176.707 E10.80822
G1 X24.216 Y175.393 E10.83200
G1 X25.294 Y173.550 E10.86929
G1 X26.512 Y172.405 E10.89848
G1 X27.361 Y171.808 E10.91661
G1 X70.667 Y144.579 E11.81003
G1 X73.727 Y142.724 E11.87252
G1 X75.243 Y141.839 E11.90319
G1 X76.946 Y140.878 E11.93733
G1 E7.93733 F12000.00000
G92 E0
G1 X72.151 Y240.344 F18000.000
G1 E4.00000 F12000.00000
G1 X72.537 Y240.309 E4.00677 F1200.000
G1 X73.459 Y239.431 E4.02901
G1 X78.922 Y242.935 E4.14237
G1 X83.905 Y245.990 E4.24444
G1 X87.200 Y247.305 E4.30640
G1 X87.200 Y247.568 E4.31100
G1 X87.372 Y247.841 E4.31663
G1 X90.059 Y249.120 E4.36860
G1 X93.809 Y250.512 E4.43847
G1 X97.685 Y251.579 E4.50868
G1 X101.701 Y252.295 E4.57993
G1 X105.785 Y252.659 E4.65154
G1 X109.926 Y252.680 E4.72386
G1 X114.064 Y252.393 E4.79630
G1 X118.175 Y251.842 E4.86874
G1 X123.169 Y250.919 E4.95744
G1 X126.177 Y250.187 E5.01150
G1 X129.740 Y248.722 E5.07879
G1 X133.255 Y246.790 E5.14884
G1 X136.679 Y244.516 E5.22063
G1 X140.032 Y241.921 E5.29468
G1 X143.190 Y239.127 E5.36832
G1 X146.159 Y236.166 E5.44155
G1 X148.991 Y232.969 E5.51614
G1 X151.582 Y229.619 E5.59011
G1 X153.838 Y226.218 E5.66139
G1 X155.611 Y222.982 E5.72584
G1 X157.767 Y218.045 E5.81992
G1 X159.142 Y214.676 E5.88348
G1 X160.388 Y210.484 E5.95985
G1 X160.399 Y208.115 E6.00123
G1 X161.066 Y207.392 E6.01840
G1 X161.137 Y207.124 E6.02324
G1 X160.413 Y204.027 E6.07880
G1 X161.067 Y203.373 E6.09495
G1 X161.151 Y203.181 E6.09861
G1 X161.301 Y199.622 E6.16082
G1 X160.975 Y194.582 E6.24904
G1 X160.501 Y190.564 E6.31969
G1 X159.718 Y187.058 E6.38243
G1 X158.488 Y183.648 E6.44575
G1 X156.093 Y178.095 E6.55136
G1 X154.836 Y175.508 E6.60159
G1 X152.723 Y172.025 E6.67274
G1 X150.282 Y168.644 E6.74556
G1 X147.609 Y165.419 E6.81872
G1 X144.701 Y162.336 E6.89275
G1 X141.646 Y159.463 E6.96599
G1 X138.402 Y156.772 E7.03960
G1 X135.019 Y154.333 E7.11243
G1 X131.504 Y152.193 E7.18431
G1 X128.022 Y150.506 E7.25189
G1 X124.842 Y149.433 E7.31050
G1 X119.267 Y148.342 E7.40971
G1 X115.143 Y147.728 E7.48254
G1 X110.998 Y147.366 E7.55521
G1 X106.887 Y147.304 E7.62701
G1 X102.829 Y147.569 E7.69804
G1 X98.875 Y148.172 E7.76789
G1 X94.957 Y149.128 E7.83833
G1 X91.044 Y150.476 E7.91061
G1 X87.049 Y152.270 E7.98708
G1 X82.725 Y154.748 E8.07413
G1 X80.044 Y156.364 E8.12880
G1 X74.816 Y159.679 E8.23691
G1 X73.569 Y160.917 E8.26761
G1 X70.262 Y160.974 E8.32536
G1 X70.109 Y161.022 E8.32816
G1 X65.176 Y164.376 E8.43235
G1 X61.234 Y167.119 E8.51622
G1 X57.210 Y169.968 E8.60234
G1 X53.384 Y172.718 E8.68462
G1 X49.483 Y175.568 E8.76900
G1 X48.044 Y176.522 E8.79915
G1 X45.339 Y178.403 E8.85669
G1 X43.952 Y179.316 E8.88569
G1 X40.130 Y181.707 E8.96444
G1 X40.101 Y181.708 E8.96494
G1 X38.959 Y182.363 E8.98793
G1 X38.263 Y182.732 E9.00170
G1 X37.516 Y183.095 E9.01619
G1 X36.620 Y183.487 E9.03327
G1 X35.652 Y183.850 E9.05133
G1 X34.784 Y184.121 E9.06722
G1 X33.740 Y184.377 E9.08599
G1 X32.635 Y184.549 E9.10552
G1 X31.910 Y184.594 E9.11821
G1 X30.710 Y184.527 E9.13920
G1 X30.263 Y184.459 E9.14710
G1 X29.763 Y184.338 E9.15607
G1 X29.126 Y184.106 E9.16793
G1 X28.095 Y183.621 E9.18782
G1 X27.795 Y183.440 E9.19394
G1 X27.454 Y183.203 E9.20119
G1 X27.106 Y182.915 E9.20908
G1 X26.784 Y182.598 E9.21698
G1 X26.506 Y182.277 E9.22439
G1 X26.209 Y181.861 E9.23331
G1 X25.665 Y180.980 E9.25140
G1 X25.520 Y180.704 E9.25685
G1 X25.366 Y180.350 E9.26359
G1 X25.230 Y179.965 E9.27072
G1 X25.127 Y179.579 E9.27770
G1 X25.047 Y179.155 E9.28524
G1 X25.001 Y178.724 E9.29281
G1 X25.000 Y178.107 E9.30359
G1 X25.063 Y177.260 E9.31841
G1 X25.153 Y176.636 E9.32942
G1 X25.297 Y176.105 E9.33904
G1 X25.556 Y175.432 E9.35162
G1 X25.992 Y174.689 E9.36667
G1 X26.537 Y174.032 E9.38157
G1 X27.130 Y173.504 E9.39545
G1 X27.960 Y172.919 E9.41318
G1 X28.416 Y172.654 E9.42239
G1 X29.087 Y172.366 E9.43515
G1 X29.531 Y172.231 E9.44325
G1 X31.037 Y171.934 E9.47006
G1 X31.959 Y171.686 E9.48674
G1 X32.972 Y171.342 E9.50541
G1 X34.062 Y170.909 E9.52591
G1 X35.176 Y170.411 E9.54722
G1 X36.789 Y169.604 E9.57872
G1 X38.387 Y168.714 E9.61066
G1 X39.953 Y167.755 E9.64273
G1 X40.980 Y167.075 E9.66425
G1 X41.929 Y166.401 E9.68457
G1 X46.364 Y163.014 E9.78204
G1 X51.689 Y159.058 E9.89790
G1 X55.731 Y156.136 E9.98500
G1 X59.930 Y153.180 E10.07468
G1 X64.231 Y150.246 E10.16561
G1 X68.452 Y147.473 E10.25382
G1 X71.343 Y145.647 E10.31354
G1 X72.813 Y144.746 E10.34365
G1 X75.813 Y142.970 E10.40454
G1 X77.334 Y142.108 E10.43507
G1 X78.856 Y141.274 E10.46538
G1 X80.551 Y140.387 E10.49879
G1 X82.226 Y139.557 E10.53144
G1 X83.857 Y138.805 E10.56281
G1 X85.589 Y138.075 E10.59564
G1 X87.403 Y137.380 E10.62957
G1 X89.039 Y136.801 E10.65988
G1 X90.718 Y136.256 E10.69070
G1 X92.541 Y135.721 E10.72388
G1 X94.407 Y135.239 E10.75755
G1 X96.131 Y134.849 E10.78842
G1 X97.914 Y134.505 E10.82012
G1 X99.645 Y134.228 E10.85074
G1 X101.468 Y133.994 E10.88284
G1 X103.270 Y133.821 E10.91446
G1 X105.107 Y133.702 E10.94660
G1 X106.913 Y133.640 E10.97818
G1 X108.769 Y133.630 E11.01059
G1 X110.489 Y133.667 E11.04064
G1 X112.367 Y133.756 E11.07348
G1 X114.174 Y133.888 E11.10511
G1 X115.878 Y134.050 E11.13501
G1 X117.568 Y134.247 E11.16473
G1 X119.386 Y134.496 E11.19677
G1 X121.097 Y134.762 E11.22701
G1 X122.891 Y135.073 E11.25881
G1 X124.665 Y135.412 E11.29035
G1 X126.529 Y135.809 E11.32363
G1 X128.605 Y136.352 E11.36112
G1 X130.347 Y136.896 E11.39299
G1 X132.119 Y137.532 E11.42587
G1 X133.916 Y138.264 E11.45976
G1 X135.559 Y139.006 E11.49125
G1 X137.227 Y139.834 E11.52377
G1 X138.860 Y140.716 E11.55618
G1 X140.358 Y141.588 E11.58646
G1 X142.062 Y142.652 E11.62154
G1 X143.542 Y143.641 E11.65263
G1 X145.028 Y144.694 E11.68444
G1 X146.477 Y145.779 E11.71606
G1 X147.893 Y146.897 E11.74757
G1 X149.277 Y148.045 E11.77898
G1 X150.631 Y149.222 E11.81030
G1 X151.954 Y150.426 E11.84154
G1 X153.249 Y151.656 E11.87273
G1 X154.516 Y152.911 E11.90388
G1 X155.757 Y154.191 E11.93501
G1 X156.970 Y155.494 E11.96611
G1 X158.156 Y156.819 E11.99718
G1 X159.317 Y158.168 E12.02825
G1 X160.450 Y159.540 E12.05933
G1 X161.558 Y160.935 E12.09044
G1 X162.671 Y162.400 E12.12258
G1 X163.727 Y163.853 E12.15395
G1 X164.755 Y165.338 E12.18549
G1 X165.753 Y166.860 E12.21728
G1 X166.679 Y168.363 E12.24811
G1 X167.688 Y170.143 E12.28383
G1 X168.453 Y171.647 E12.31332
G1 X169.244 Y173.348 E12.34608
G1 X169.971 Y174.976 E12.37721
G1 X170.665 Y176.611 E12.40823
G1 X171.324 Y178.262 E12.43928
G1 X171.930 Y179.900 E12.46978
G1 X172.511 Y181.622 E12.50153
G1 X173.029 Y183.330 E12.53270
G1 X173.537 Y185.243 E12.56727
G1 X173.955 Y187.100 E12.60051
G1 X174.288 Y188.866 E12.63189
G1 X174.554 Y190.623 E12.66293
G1 X174.764 Y192.421 E12.69455
G1 X174.908 Y194.163 E12.72508
G1 X175.011 Y196.242 E12.76143
G1 X175.040 Y198.134 E12.79447
G1 X175.040 Y201.905 E12.86034
G1 X175.011 Y203.756 E12.89267
G1 X174.928 Y205.543 E12.92390
G1 X174.764 Y207.577 E12.95956
G1 X174.567 Y209.281 E12.98951
G1 X174.303 Y211.046 E13.02067
G1 X173.927 Y213.036 E13.05605
G1 X173.523 Y214.814 E13.08790
G1 X173.051 Y216.592 E13.12003
G1 X172.527 Y218.328 E13.15170
G1 X171.954 Y220.031 E13.18306
G1 X171.338 Y221.702 E13.21417
G1 X170.707 Y223.287 E13.24396
G1 X169.989 Y224.983 E13.27613
G1 X169.250 Y226.638 E13.30780
G1 X168.453 Y228.352 E13.34081
G1 X167.629 Y229.969 E13.37251
G1 X166.685 Y231.628 E13.40584
G1 X165.774 Y233.107 E13.43617
G1 X164.750 Y234.669 E13.46880
G1 X163.772 Y236.084 E13.49883
G1 X162.717 Y237.539 E13.53022
G1 X161.639 Y238.960 E13.56137
G1 X160.448 Y240.463 E13.59487
G1 X159.279 Y241.875 E13.62688
G1 X158.177 Y243.157 E13.65641
G1 X157.028 Y244.442 E13.68651
G1 X155.790 Y245.774 E13.71828
G1 X154.603 Y247.002 E13.74810
G1 X153.375 Y248.222 E13.77833
G1 X152.145 Y249.396 E13.80804
G1 X150.839 Y250.592 E13.83895
G1 X149.455 Y251.804 E13.87109
G1 X148.010 Y253.008 E13.90394
G1 X146.645 Y254.092 E13.93438
G1 X145.228 Y255.160 E13.96537
G1 X143.729 Y256.230 E13.99753
G1 X142.144 Y257.295 E14.03089
G1 X140.620 Y258.254 E14.06232
G1 X138.956 Y259.230 E14.09602
G1 X137.308 Y260.124 E14.12877
G1 X135.624 Y260.963 E14.16164
G1 X133.813 Y261.780 E14.19633
G1 X132.148 Y262.456 E14.22771
G1 X130.358 Y263.100 E14.26093
G1 X128.535 Y263.669 E14.29429
G1 X126.679 Y264.157 E14.32780
G1 X124.745 Y264.571 E14.36236
G1 X123.077 Y264.892 E14.39202
G1 X121.360 Y265.194 E14.42246
G1 X119.657 Y265.464 E14.45258
G1 X117.898 Y265.710 E14.48359
G1 X116.048 Y265.931 E14.51614
G1 X114.160 Y266.113 E14.54926
G1 X112.444 Y266.239 E14.57931
G1 X110.737 Y266.324 E14.60916
G1 X108.859 Y266.369 E14.64197
G1 X107.014 Y266.362 E14.67420
G1 X105.187 Y266.302 E14.70612
G1 X103.247 Y266.177 E14.74007
G1 X101.374 Y265.995 E14.77293
G1 X99.443 Y265.743 E14.80695
G1 X97.684 Y265.454 E14.83808
G1 X95.869 Y265.095 E14.87039
G1 X94.160 Y264.702 E14.90103
G1 X92.421 Y264.245 E14.93242
G1 X90.677 Y263.731 E14.96417
G1 X88.986 Y263.181 E14.99524
G1 X87.281 Y262.575 E15.02684
G1 X85.513 Y261.895 E15.05992
G1 X83.946 Y261.236 E15.08960
G1 X82.295 Y260.476 E15.12136
G1 X80.706 Y259.692 E15.15230
G1 X79.142 Y258.879 E15.18308
G1 X77.601 Y258.041 E15.21372
G1 X76.057 Y257.170 E15.24468
G1 X73.175 Y255.473 E15.30309
G1 X71.586 Y254.503 E15.33561
G1 X68.704 Y252.688 E15.39509
G1 X65.721 Y250.746 E15.45725
G1 X62.905 Y248.860 E15.51644
G1 X58.653 Y245.929 E15.60665
G1 X54.555 Y243.021 E15.69440
G1 X50.373 Y239.976 E15.78476
G1 X46.249 Y236.900 E15.87460
G1 X41.851 Y233.542 E15.97124
G1 X40.814 Y232.812 E15.99339
G1 X39.739 Y232.108 E16.01584
G1 X38.587 Y231.403 E16.03943
G1 X36.848 Y230.427 E16.07425
G1 X35.689 Y229.835 E16.09698
G1 X34.540 Y229.298 E16.11913
G1 X33.395 Y228.819 E16.14082
G1 X32.290 Y228.419 E16.16134
G1 X31.246 Y228.115 E16.18033
G1 X29.845 Y227.837 E16.20527
G1 X29.238 Y227.650 E16.21636
G1 X28.097 Y227.173 E16.23797
G1 X27.547 Y226.856 E16.24905
G1 X26.966 Y226.420 E16.26174
G1 X26.418 Y225.867 E16.27534
G1 X25.984 Y225.277 E16.28813
G1 X25.664 Y224.704 E16.29959
G1 X25.398 Y224.015 E16.31248
G1 X25.139 Y223.139 E16.32843
G1 X25.068 Y222.829 E16.33400
G1 X24.997 Y222.406 E16.34149
G1 X24.961 Y221.899 E16.35037
G1 X24.974 Y221.403 E16.35903
G1 X25.024 Y220.953 E16.36693
G1 X25.112 Y220.511 E16.37481
G1 X25.226 Y220.108 E16.38212
G1 X25.421 Y219.604 E16.39156
G1 X25.788 Y218.812 E16.40681
G1 X26.040 Y218.346 E16.41607
G1 X26.277 Y217.992 E16.42351
G1 X26.564 Y217.630 E16.43156
G1 X26.883 Y217.294 E16.43966
G1 X27.243 Y216.975 E16.44806
G1 X27.617 Y216.698 E16.45620
G1 X27.977 Y216.478 E16.46356
G1 X28.882 Y215.987 E16.48153
G1 X29.365 Y215.782 E16.49071
