; generated by Slic3r 1.2.9 on 2019-08-11 at 18:14:50

; external perimeters extrusion width = 0.50mm
; perimeters extrusion width = 0.50mm
; infill extrusion width = 0.50mm
; solid infill extrusion width = 0.50mm
; top infill extrusion width = 0.50mm

M107
M190 S0
M140 S0
M109 S190
G92 E0                  ;zero the extruded length
G1 F50 E9 ;extrude 3mm of feed stock
G1 X30 Y10 Z0 F1000
G1 X30 Y100 Z0 F2000
G1 X100 Y100 Z0 F5000
G92 E0                  ;zero the extruded length aa
G21 ; set units to millimeters
G90 ; use absolute coordinates
M82 ; use absolute distances for extrusion
G92 E0
G1 E-4.00000 F12000.00000
G92 E0
G1 Z0.200 F18000.000
G1 X77.514 Y140.563 F18000.000
G1 E4.00000 F12000.00000
G1 X79.372 Y139.571 E4.03553 F1200.000
G1 X81.815 Y138.351 E4.08159
G1 X83.444 Y137.603 E4.11181
G1 X85.040 Y136.932 E4.14103
G1 X87.214 Y136.102 E4.18028
G1 X89.400 Y135.348 E4.21928
G1 X90.618 Y134.963 E4.24083
G1 X92.743 Y134.356 E4.27811
G1 X95.023 Y133.796 E4.31771
G1 X96.311 Y133.521 E4.33993
G1 X98.532 Y133.119 E4.37800
G1 X99.863 Y132.920 E4.40070
G1 X102.160 Y132.650 E4.43971
G1 X103.533 Y132.532 E4.46296
G1 X105.920 Y132.402 E4.50328
G1 X107.965 Y132.363 E4.53779
G1 X109.858 Y132.383 E4.56972 F1200.000
G1 X111.195 Y132.429 E4.59229
G1 X113.927 Y132.598 E4.63845
G1 X116.740 Y132.873 E4.68612
G1 X119.692 Y133.262 E4.73635
G1 X121.882 Y133.611 E4.77375
G1 X123.407 Y133.882 E4.79988
G1 X125.745 Y134.341 E4.84007
G1 X126.763 Y134.564 E4.85766
G1 X127.837 Y134.829 E4.87632
G1 X128.901 Y135.121 E4.89492
G1 X129.953 Y135.438 E4.91346
G1 X131.141 Y135.831 E4.93456
G1 X132.165 Y136.198 E4.95291
G1 X133.177 Y136.588 E4.97120
G1 X134.177 Y137.000 E4.98945
G1 X136.020 Y137.826 E5.02351
G1 X138.058 Y138.841 E5.06193
G1 X138.999 Y139.346 E5.07993
G1 X140.744 Y140.345 E5.11384
G1 X142.639 Y141.520 E5.15146
G1 X144.303 Y142.629 E5.18519
G1 X145.242 Y143.289 E5.20456
G1 X146.086 Y143.902 E5.22215
G1 X147.663 Y145.099 E5.25555
G1 X148.542 Y145.796 E5.27446
G1 X150.052 Y147.045 E5.30752
G1 X150.886 Y147.762 E5.32606
G1 X152.385 Y149.103 E5.36000
G1 X153.779 Y150.410 E5.39223
G1 X155.178 Y151.783 E5.42531
G1 X157.225 Y153.906 E5.47504
G1 X158.488 Y155.287 E5.50661
G1 X159.696 Y156.664 E5.53751
G1 X160.809 Y157.982 E5.56661
G1 X161.906 Y159.334 E5.59598
G1 X162.946 Y160.666 E5.62448
G1 X163.965 Y162.023 E5.65310
G1 X164.886 Y163.302 E5.67970
G1 X165.748 Y164.549 E5.70527
G1 X166.549 Y165.760 E5.72975
G1 X167.598 Y167.437 E5.76311
G1 X168.524 Y169.035 E5.79428
G1 X169.077 Y170.065 E5.81399
G1 X169.979 Y171.923 E5.84882
G1 X170.979 Y174.126 E5.88964
G1 X171.626 Y175.629 E5.91725
G1 X172.272 Y177.213 E5.94610
G1 X172.863 Y178.764 E5.97409
G1 X173.419 Y180.337 E6.00223
G1 X173.908 Y181.850 E6.02905
G1 X174.180 Y182.757 E6.04502
G1 X174.605 Y184.309 E6.07217
G1 X175.012 Y185.996 E6.10145
G1 X175.218 Y186.962 E6.11810
G1 X175.526 Y188.607 E6.14633
G1 X175.687 Y189.611 E6.16349
G1 X175.916 Y191.321 E6.19258
G1 X176.029 Y192.361 E6.21023
G1 X176.175 Y194.146 E6.24044
G1 X176.236 Y195.221 E6.25860
G1 X176.296 Y197.092 E6.29019
G1 X176.305 Y198.103 E6.30724
G1 X176.296 Y202.906 E6.38825
G1 X176.271 Y203.904 E6.40509
G1 X176.182 Y205.745 E6.43618
G1 X176.018 Y207.751 E6.47013
G1 X175.914 Y208.698 E6.48620
G1 X175.687 Y210.389 E6.51498
G1 X175.526 Y211.390 E6.53209
G1 X175.219 Y213.036 E6.56032
G1 X175.012 Y214.002 E6.57699
G1 X174.632 Y215.589 E6.60452
G1 X174.384 Y216.519 E6.62076
G1 X173.909 Y218.148 E6.64938
G1 X173.118 Y220.533 E6.69176
G1 X172.573 Y222.013 E6.71836
G1 X171.965 Y223.551 E6.74625
G1 X171.329 Y225.071 E6.77405
G1 X170.646 Y226.621 E6.80262
G1 X169.627 Y228.827 E6.84360
G1 X169.171 Y229.753 E6.86102
G1 X168.610 Y230.809 E6.88119
G1 X167.990 Y231.903 E6.90240
G1 X166.927 Y233.649 E6.93688
G1 X166.120 Y234.895 E6.96193
G1 X164.886 Y236.698 E6.99877
G1 X163.965 Y237.977 E7.02537
G1 X162.984 Y239.285 E7.05294
G1 X161.906 Y240.666 E7.08249
G1 X160.809 Y242.017 E7.11185
G1 X159.655 Y243.384 E7.14202
G1 X158.488 Y244.713 E7.17186
G1 X157.225 Y246.094 E7.20343
G1 X155.908 Y247.476 E7.23563
G1 X153.780 Y249.589 E7.28622
G1 X152.328 Y250.950 E7.31978
G1 X150.886 Y252.238 E7.35240
G1 X150.052 Y252.955 E7.37094
G1 X148.542 Y254.204 E7.40401
G1 X146.917 Y255.476 E7.43881
G1 X146.008 Y256.156 E7.45796
G1 X144.387 Y257.313 E7.49155
G1 X143.431 Y257.961 E7.51103
G1 X141.748 Y259.045 E7.54481
G1 X140.744 Y259.656 E7.56463
G1 X138.999 Y260.654 E7.59854
G1 X138.058 Y261.159 E7.61654
G1 X136.989 Y261.705 E7.63680
G1 X135.165 Y262.568 E7.67084
G1 X134.045 Y263.056 E7.69144
G1 X133.040 Y263.466 E7.70974
G1 X131.141 Y264.169 E7.74391
G1 X130.106 Y264.513 E7.76231
G1 X129.059 Y264.833 E7.78077
G1 X128.001 Y265.128 E7.79929
G1 X126.932 Y265.396 E7.81788
G1 X125.745 Y265.659 E7.83840
G1 X122.642 Y266.256 E7.89170
G1 X119.642 Y266.745 E7.94296
G1 X116.740 Y267.127 E7.99235
G1 X113.927 Y267.402 E8.04002
G1 X111.195 Y267.571 E8.08619
G1 X109.858 Y267.617 E8.10875
G1 X108.539 Y267.637 E8.13100
G1 X107.238 Y267.631 E8.15295
G1 X105.920 Y267.598 E8.17519
G1 X104.651 Y267.540 E8.19661
G1 X103.398 Y267.457 E8.21779
G1 X102.160 Y267.350 E8.23877
G1 X100.936 Y267.218 E8.25952
G1 X99.727 Y267.061 E8.28008
G1 X98.532 Y266.882 E8.30047
G1 X96.180 Y266.452 E8.34080
G1 X93.878 Y265.935 E8.38061
G1 X91.619 Y265.333 E8.42004
G1 X90.505 Y265.002 E8.43963
G1 X88.407 Y264.319 E8.47685
G1 X86.132 Y263.494 E8.51767
G1 X84.354 Y262.788 E8.54995
G1 X82.722 Y262.072 E8.58000
G1 X81.062 Y261.284 E8.61100
G1 X79.311 Y260.398 E8.64410
G1 X77.602 Y259.485 E8.67677
G1 X75.029 Y258.038 E8.72657
G1 X73.218 Y256.974 E8.76201
G1 X70.536 Y255.340 E8.81498
G1 X27.044 Y228.043 E9.68112
G1 X25.773 Y227.002 E9.70884
G1 X25.623 Y226.844 E9.71252
G1 X24.464 Y225.160 E9.74700
G1 X24.372 Y224.967 E9.75060
G1 X23.827 Y223.253 E9.78095
G1 X23.790 Y223.040 E9.78458
G1 X23.695 Y221.928 E9.80341
G1 X23.695 Y178.072 E10.54317
G1 X23.790 Y176.962 E10.56197
G1 X23.827 Y176.747 E10.56564
G1 X24.372 Y175.033 E10.59598
G1 X24.464 Y174.842 E10.59955
G1 X25.622 Y173.157 E10.63404
G1 X25.773 Y172.998 E10.63774
G1 X27.044 Y171.957 E10.66546
G1 X70.536 Y144.660 E11.53160
G1 X72.361 Y143.541 E11.56771
G1 X74.105 Y142.501 E11.60196
G1 X75.865 Y141.483 E11.63625
G1 X77.435 Y140.607 E11.66659
G1 X78.125 Y141.671 F18000.000
G1 X79.938 Y140.702 E11.70126 F1200.000
G1 X82.382 Y139.482 E11.74735
G1 X83.982 Y138.748 E11.77703
G1 X85.540 Y138.094 E11.80553
G1 X87.715 Y137.266 E11.84479
G1 X89.824 Y136.540 E11.88241
G1 X90.954 Y136.183 E11.90241
G1 X93.103 Y135.569 E11.94011
G1 X95.337 Y135.021 E11.97891
G1 X96.523 Y134.768 E11.99936
G1 X98.772 Y134.361 E12.03791
G1 X99.996 Y134.178 E12.05879
G1 X102.322 Y133.905 E12.09829
G1 X103.588 Y133.796 E12.11973
G1 X105.996 Y133.665 E12.16040
G1 X107.965 Y133.628 E12.19362
G1 X109.846 Y133.648 E12.22535 F1200.000
G1 X111.158 Y133.693 E12.24750
G1 X113.842 Y133.860 E12.29287
G1 X116.611 Y134.132 E12.33980
G1 X119.493 Y134.511 E12.38882
G1 X121.683 Y134.860 E12.42623
G1 X123.190 Y135.129 E12.45204
G1 X125.515 Y135.585 E12.49201
G1 X126.525 Y135.807 E12.50946
G1 X127.565 Y136.065 E12.52754
G1 X128.596 Y136.349 E12.54557
G1 X129.616 Y136.658 E12.56355
G1 X130.686 Y137.011 E12.58255
G1 X132.670 Y137.748 E12.61825
G1 X133.645 Y138.148 E12.63604
G1 X135.515 Y138.986 E12.67059
G1 X137.439 Y139.944 E12.70685
G1 X138.359 Y140.438 E12.72447
G1 X140.126 Y141.449 E12.75880
G1 X141.928 Y142.565 E12.79456
G1 X143.609 Y143.687 E12.82866
G1 X144.484 Y144.301 E12.84668
G1 X145.313 Y144.903 E12.86396
G1 X146.906 Y146.112 E12.89769
G1 X147.729 Y146.765 E12.91541
G1 X149.253 Y148.025 E12.94877
G1 X150.036 Y148.699 E12.96620
G1 X151.514 Y150.020 E12.99963
G1 X152.919 Y151.338 E13.03213
G1 X154.298 Y152.691 E13.06471
G1 X156.287 Y154.754 E13.11305
G1 X157.515 Y156.097 E13.14375
G1 X158.726 Y157.475 E13.17469
G1 X159.846 Y158.803 E13.20400
G1 X160.928 Y160.136 E13.23296
G1 X161.953 Y161.449 E13.26105
G1 X162.935 Y162.758 E13.28865
G1 X163.828 Y163.996 E13.31440
G1 X164.690 Y165.242 E13.33997
G1 X165.477 Y166.430 E13.36400
G1 X166.526 Y168.108 E13.39739
G1 X167.443 Y169.692 E13.42826
G1 X167.981 Y170.697 E13.44749
G1 X168.827 Y172.446 E13.48026
G1 X169.828 Y174.650 E13.52109
G1 X170.467 Y176.136 E13.54837
G1 X171.088 Y177.659 E13.57611
G1 X171.668 Y179.178 E13.60355
G1 X172.213 Y180.718 E13.63110
G1 X172.708 Y182.249 E13.65823
G1 X172.957 Y183.082 E13.67290
G1 X173.388 Y184.655 E13.70041
G1 X173.784 Y186.303 E13.72900
G1 X173.973 Y187.184 E13.74420
G1 X174.285 Y188.851 E13.77282
G1 X174.432 Y189.769 E13.78849
G1 X174.664 Y191.500 E13.81796
G1 X174.767 Y192.453 E13.83412
G1 X174.915 Y194.260 E13.86470
G1 X174.971 Y195.250 E13.88143
G1 X175.033 Y197.229 E13.91483
G1 X175.032 Y202.855 E14.00973
G1 X175.008 Y203.833 E14.02623
G1 X174.918 Y205.695 E14.05767
G1 X174.762 Y207.593 E14.08979
G1 X174.659 Y208.541 E14.10588
G1 X174.432 Y210.232 E14.13466
G1 X174.285 Y211.147 E14.15029
G1 X173.973 Y212.814 E14.17890
G1 X173.785 Y213.696 E14.19411
G1 X173.399 Y215.304 E14.22201
G1 X173.173 Y216.156 E14.23687
G1 X172.708 Y217.750 E14.26487
G1 X171.934 Y220.087 E14.30641
G1 X171.383 Y221.583 E14.33330
G1 X170.787 Y223.092 E14.36067
G1 X170.160 Y224.587 E14.38800
G1 X169.498 Y226.089 E14.41570
G1 X168.471 Y228.314 E14.45704
G1 X168.019 Y229.229 E14.47425
G1 X167.478 Y230.245 E14.49366
G1 X166.879 Y231.298 E14.51410
G1 X165.847 Y232.991 E14.54754
G1 X164.690 Y234.758 E14.58316
G1 X163.842 Y235.984 E14.60831
G1 X162.920 Y237.263 E14.63491
G1 X161.968 Y238.531 E14.66166
G1 X160.928 Y239.864 E14.69017
G1 X159.847 Y241.197 E14.71912
G1 X158.709 Y242.544 E14.74888
G1 X157.533 Y243.883 E14.77893
G1 X156.268 Y245.266 E14.81054
G1 X154.987 Y246.609 E14.84184
G1 X152.920 Y248.662 E14.89099
G1 X151.491 Y250.001 E14.92403
G1 X150.036 Y251.301 E14.95693
G1 X149.253 Y251.975 E14.97436
G1 X147.728 Y253.236 E15.00773
G1 X146.130 Y254.486 E15.04196
G1 X145.281 Y255.121 E15.05984
G1 X143.644 Y256.289 E15.09377
G1 X142.755 Y256.892 E15.11188
G1 X141.053 Y257.988 E15.14604
G1 X140.126 Y258.552 E15.16433
G1 X138.359 Y259.562 E15.19867
G1 X137.438 Y260.056 E15.21629
G1 X136.459 Y260.556 E15.23483
G1 X134.610 Y261.431 E15.26934
G1 X132.615 Y262.274 E15.30588
G1 X130.686 Y262.989 E15.34058
G1 X129.678 Y263.323 E15.35849
G1 X128.660 Y263.633 E15.37644
G1 X127.631 Y263.918 E15.39444
G1 X126.593 Y264.177 E15.41250
G1 X125.514 Y264.416 E15.43113
G1 X123.953 Y264.727 E15.45799
G1 X121.702 Y265.137 E15.49659
G1 X118.768 Y265.593 E15.54666
G1 X115.911 Y265.946 E15.59523
G1 X113.165 Y266.191 E15.64173
G1 X110.499 Y266.333 E15.68676
G1 X109.196 Y266.365 E15.70875
G1 X107.911 Y266.372 E15.73042
G1 X106.644 Y266.354 E15.75180
G1 X104.814 Y266.283 E15.78268
G1 X103.588 Y266.204 E15.80341
G1 X102.376 Y266.100 E15.82392
G1 X101.179 Y265.973 E15.84423
G1 X99.996 Y265.822 E15.86435
G1 X97.668 Y265.451 E15.90411
G1 X95.337 Y264.979 E15.94423
G1 X93.103 Y264.431 E15.98303
G1 X90.909 Y263.803 E16.02153
G1 X88.746 Y263.099 E16.05990
G1 X87.675 Y262.720 E16.07906
G1 X85.581 Y261.923 E16.11684
G1 X83.982 Y261.252 E16.14610
G1 X81.598 Y260.139 E16.19048
G1 X79.913 Y259.285 E16.22234
G1 X77.386 Y257.922 E16.27078
G1 X75.632 Y256.926 E16.30479
G1 X72.992 Y255.363 E16.35655
G1 X70.331 Y253.721 E16.40930
G1 X67.636 Y252.001 E16.46322
G1 X64.975 Y250.251 E16.51694
G1 X62.332 Y248.471 E16.57069
G1 X59.758 Y246.701 E16.62339
G1 X56.463 Y244.386 E16.69131
G1 X52.635 Y241.632 E16.77086
G1 X49.241 Y239.140 E16.84188
G1 X45.352 Y236.222 E16.92389
G1 X41.760 Y233.476 E17.00015
G1 X40.390 Y232.530 E17.02824
G1 X38.845 Y231.558 E17.05903
G1 X37.183 Y230.608 E17.09132
G1 X36.326 Y230.155 E17.10767
G1 X34.639 Y229.343 E17.13924
G1 X33.818 Y228.989 E17.15434
G1 X33.018 Y228.675 E17.16883
G1 X32.282 Y228.417 E17.18198
G1 X31.597 Y228.209 E17.19406
G1 X30.973 Y228.053 E17.20491
G1 X29.703 Y227.815 E17.22671
G1 X29.317 Y227.711 E17.23345
G1 X28.700 Y227.495 E17.24448
G1 X28.230 Y227.277 E17.25322
G1 X27.524 Y226.861 E17.26704
G1 X26.945 Y226.400 E17.27953
G1 X26.255 Y225.672 E17.29644
G1 X25.785 Y224.988 E17.31044
G1 X25.356 Y224.093 E17.32719
G1 X25.135 Y223.397 E17.33949
G1 X24.984 Y222.521 E17.35449
G1 X24.951 Y221.903 E17.36493
G1 X25.002 Y221.101 E17.37848
G1 X25.091 Y220.567 E17.38762
G1 X25.291 Y219.838 E17.40037
G1 X25.472 Y219.362 E17.40896
G1 X25.805 Y218.691 E17.42159
G1 X26.082 Y218.249 E17.43040
G1 X26.559 Y217.632 E17.44355
G1 X26.958 Y217.218 E17.45324
G1 X27.555 Y216.719 E17.46637
G1 X27.991 Y216.423 E17.47526
G1 X28.592 Y216.097 E17.48679
G1 X28.954 Y215.934 E17.49350
G1 X29.517 Y215.730 E17.50359
G1 X29.853 Y215.633 E17.50949
G1 X30.388 Y215.516 E17.51872
G1 X31.223 Y215.414 E17.53292
G1 X31.567 Y215.400 E17.53872
G1 X32.359 Y215.422 E17.55209
G1 X32.675 Y215.450 E17.55744
G1 X33.399 Y215.557 E17.56979
G1 X34.683 Y215.851 E17.59200
G1 X36.076 Y216.301 E17.61670
G1 X37.177 Y216.750 E17.63675
G1 X38.196 Y217.234 E17.65578
G1 X39.143 Y217.738 E17.67387
G1 X40.044 Y218.257 E17.69142
G1 X41.724 Y219.291 E17.72469
G1 X44.641 Y221.129 E17.78285
G1 X48.098 Y223.515 E17.85370
G1 X49.476 Y224.426 E17.88156
G1 X55.534 Y228.833 E18.00793
G1 X61.461 Y233.040 E18.13052
G1 X65.851 Y236.090 E18.22070
G1 X70.229 Y239.066 E18.31000
G1 X74.658 Y241.993 E18.39954
G1 X78.738 Y244.593 E18.48115
G1 X80.580 Y245.728 E18.51764
G1 X82.352 Y246.789 E18.55248
G1 X84.036 Y247.764 E18.58530
G1 X85.555 Y248.606 E18.61460
G1 X86.275 Y248.984 E18.62832
G1 X87.700 Y249.688 E18.65512
G1 X89.109 Y250.330 E18.68125
G1 X90.517 Y250.917 E18.70697
G1 X91.905 Y251.445 E18.73203
G1 X93.287 Y251.921 E18.75668
G1 X94.658 Y252.346 E18.78089
G1 X96.018 Y252.722 E18.80469
G1 X97.367 Y253.051 E18.82812
G1 X98.705 Y253.335 E18.85119
G1 X100.031 Y253.577 E18.87393
G1 X101.347 Y253.778 E18.89637
G1 X102.650 Y253.941 E18.91853
G1 X103.941 Y254.067 E18.94041
G1 X105.220 Y254.158 E18.96204
G1 X106.489 Y254.216 E18.98347
G1 X108.360 Y254.245 E19.01504
G1 X110.203 Y254.211 E19.04613
G1 X112.013 Y254.120 E19.07669
G1 X113.789 Y253.978 E19.10675
G1 X115.531 Y253.792 E19.13629
G1 X117.601 Y253.513 E19.17153
G1 X119.794 Y253.158 E19.20900
G1 X121.566 Y252.833 E19.23940
G1 X123.614 Y252.421 E19.27463
G1 X125.089 Y252.100 E19.30009
G1 X126.100 Y251.828 E19.31775
G1 X127.143 Y251.493 E19.33623
G1 X128.789 Y250.866 E19.36594
G1 X129.926 Y250.367 E19.38688
G1 X131.089 Y249.806 E19.40866
G1 X132.273 Y249.185 E19.43121
G1 X133.477 Y248.505 E19.45455
G1 X135.297 Y247.386 E19.49058
G1 X136.523 Y246.571 E19.51541
G1 X138.359 Y245.264 E19.55343
G1 X139.585 Y244.333 E19.57939
G1 X141.401 Y242.863 E19.61881
G1 X142.603 Y241.832 E19.64552
G1 X144.371 Y240.223 E19.68584
G1 X146.092 Y238.549 E19.72633
G1 X147.209 Y237.398 E19.75339
G1 X148.831 Y235.629 E19.79387
G1 X149.873 Y234.424 E19.82075
G1 X151.363 Y232.595 E19.86054
G1 X152.310 Y231.357 E19.88683
G1 X153.641 Y229.495 E19.92544
G1 X154.473 Y228.246 E19.95076
G1 X155.249 Y227.005 E19.97544
G1 X155.974 Y225.766 E19.99966
G1 X156.643 Y224.536 E20.02327
G1 X157.253 Y223.320 E20.04622
G1 X157.813 Y222.096 E20.06892
G1 X158.679 Y220.108 E20.10550
G1 X159.429 Y218.359 E20.13761
G1 X160.080 Y216.777 E20.16646
G1 X160.500 Y215.685 E20.18619
G1 X160.869 Y214.650 E20.20473
G1 X161.345 Y213.124 E20.23169
G1 X161.618 Y212.090 E20.24974
G1 X161.862 Y211.004 E20.26851
G1 X162.187 Y209.192 E20.29956
G1 X162.376 Y207.829 E20.32277
G1 X162.545 Y206.312 E20.34851
G1 X162.695 Y204.617 E20.37722
G1 X162.827 Y202.725 E20.40921
G1 X162.936 Y200.723 E20.44303
G1 X162.936 Y199.277 E20.46742
G1 X162.887 Y198.303 E20.48387
G1 X162.763 Y196.304 E20.51766
G1 X162.622 Y194.509 E20.54803
G1 X162.463 Y192.905 E20.57522
G1 X162.186 Y190.805 E20.61095
G1 X161.976 Y189.572 E20.63205
G1 X161.618 Y187.911 E20.66071
G1 X161.344 Y186.871 E20.67885
G1 X160.871 Y185.354 E20.70564
G1 X160.297 Y183.777 E20.73396
G1 X159.766 Y182.449 E20.75807
G1 X159.064 Y180.784 E20.78857
G1 X157.537 Y177.287 E20.85293
G1 X156.645 Y175.468 E20.88710
G1 X155.621 Y173.619 E20.92275
G1 X154.869 Y172.377 E20.94725
G1 X154.064 Y171.131 E20.97226
G1 X153.208 Y169.882 E20.99781
G1 X152.310 Y168.643 E21.02362
