; generated by Slic3r 1.36.2-prusa3d-linux64 on 2017-08-18 at 17:34:21

; 

; external perimeters extrusion width = 0.68mm
; perimeters extrusion width = 0.68mm
; infill extrusion width = 0.68mm
; solid infill extrusion width = 0.68mm
; top infill extrusion width = 0.60mm

M107
M208 S-0.05 F12000 ; is setting for extrusion recover length and speed. In my case I tend to recover -0.05mm less as it prevents creating a small blob on the place where filament starts flowing and speed is 3mm/s.
M207 S4 F12000 ; M207 is retraction settings. I retract 1mm at speed of 30mm/s.

M190 S0
M140 S0
M109 S250
G92 E0                  ;zero the extruded length
G1 F50 E9 ;extrude 3mm of feed stock
G1 X30 Y10 Z0 F1000
G1 X30 Y100 Z0 F2000
G1 X100 Y100 Z0 F5000
G92 E0                  ;zero the extruded length aa


; Filament gcode

M208 S-0.05 F12000 ; is setting for extrusion recover length and speed. In my case I tend to recover -0.05mm less as it prevents creating a small blob on the place where filament starts flowing and speed is 3mm/s.
M207 S4 F12000 ; M207 is retraction settings. I retract 1mm at speed of 30mm/s.
G21 ; set units to millimeters
G90 ; use absolute coordinates
M82 ; use absolute distances for extrusion
G92 E0
G10 ; retract
G92 E0
G1 Z0.200 F18000.000
G1 X67.955 Y158.505 F18000.000
G11 ; unretract
G92 E0
G1 F1200
G1 X69.843 Y157.896 E0.04161
G1 X71.760 Y157.519 E0.08258
G1 X73.708 Y157.370 E0.12356
G1 X100.000 Y157.368 E0.67504
G1 X101.459 Y157.432 E0.70568
G1 X102.917 Y157.626 E0.73652
G1 X104.352 Y157.947 E0.76737
G1 X105.753 Y158.394 E0.79821
G1 X107.099 Y158.959 E0.82885
G1 X108.400 Y159.645 E0.85969
G1 X109.627 Y160.437 E0.89032
G1 X110.787 Y161.341 E0.92117
G1 X111.743 Y162.222 E0.94842
G1 X137.916 Y188.397 E1.72485
G1 X139.334 Y190.059 E1.77068
G1 X140.527 Y191.902 E1.81672
G1 X141.396 Y193.707 E1.85875
G1 X142.043 Y195.614 E1.90099
G1 X142.454 Y197.575 E1.94302
G1 X142.627 Y199.572 E1.98505
G1 X142.623 Y226.554 E2.55101
G1 X142.521 Y227.920 E2.57974
G1 X142.309 Y229.263 E2.60826
G1 X141.985 Y230.594 E2.63700
G1 X141.553 Y231.894 E2.66573
G1 X140.622 Y233.926 E2.71261
G1 X139.427 Y235.815 E2.75949
G1 X137.990 Y237.527 E2.80637
G1 X136.328 Y239.037 E2.85346
G1 X134.487 Y240.304 E2.90034
G1 X132.483 Y241.316 E2.94744
G1 X130.371 Y242.047 E2.99432
G1 X128.170 Y242.490 E3.04141
G1 X126.040 Y242.632 E3.08618
G1 X73.738 Y242.630 E4.18323
G1 X72.300 Y242.545 E4.21345
G1 X70.875 Y242.336 E4.24366
G1 X69.474 Y242.004 E4.27387
G1 X68.106 Y241.553 E4.30408
G1 X66.074 Y240.622 E4.35096
G1 X64.185 Y239.427 E4.39784
G1 X62.473 Y237.990 E4.44472
G1 X60.963 Y236.328 E4.49181
G1 X59.696 Y234.487 E4.53870
G1 X58.684 Y232.483 E4.58579
G1 X57.953 Y230.371 E4.63267
G1 X57.510 Y228.170 E4.67976
G1 X57.368 Y226.040 E4.72453
G1 X57.370 Y173.738 E5.82159
G1 X57.455 Y172.300 E5.85180
G1 X57.664 Y170.875 E5.88201
G1 X57.996 Y169.474 E5.91222
G1 X58.447 Y168.106 E5.94243
G1 X59.260 Y166.296 E5.98404
G1 X60.282 Y164.596 E6.02565
G1 X61.499 Y163.030 E6.06726
G1 X62.901 Y161.613 E6.10908
G1 X64.455 Y160.379 E6.15068
G1 X66.154 Y159.335 E6.19250
G1 X67.874 Y158.543 E6.23222
G10 ; retract
G92 E0
G1 X114.207 Y185.800 F18000.000
G11 ; unretract
G92 E0
G1 F1200
G1 X127.712 Y185.845 E0.28326
G1 X130.522 Y186.449 E0.34355
G1 X132.466 Y187.265 E0.38778
G1 X134.276 Y188.371 E0.43227
G1 X136.810 Y190.714 E0.50466
G1 X138.724 Y193.515 E0.57583
G1 X139.761 Y196.185 E0.63591
G1 X140.222 Y199.039 E0.69654
G1 X140.215 Y211.569 E0.95935
G1 X139.995 Y213.011 E0.98996
G1 X140.222 Y214.523 E1.02201
G1 X140.222 Y226.945 E1.28257
G1 X139.858 Y229.438 E1.33542
G1 X139.063 Y231.799 E1.38769
G1 X136.888 Y235.197 E1.47230
G1 X133.869 Y237.927 E1.55768
G1 X132.377 Y238.780 E1.59373
G1 X130.818 Y239.459 E1.62940
G1 X127.168 Y240.209 E1.70756
G1 X73.055 Y240.222 E2.84259
G1 X70.562 Y239.858 E2.89543
G1 X68.201 Y239.063 E2.94770
G1 X64.803 Y236.888 E3.03232
G1 X62.073 Y233.869 E3.11769
G1 X61.220 Y232.377 E3.15374
G1 X60.541 Y230.818 E3.18941
G1 X59.791 Y227.168 E3.26757
G1 X59.778 Y173.083 E4.40201
G1 X60.120 Y170.648 E4.45360
G1 X60.909 Y168.267 E4.50620
G1 X62.854 Y165.109 E4.58401
G1 X65.497 Y162.546 E4.66123
G1 X68.101 Y160.985 E4.72491
G1 X69.923 Y160.312 E4.76565
G1 X71.775 Y159.900 E4.80545
G1 X85.500 Y159.781 E5.09333
G1 X87.003 Y160.006 E5.12522
G1 X88.527 Y159.778 E5.15754
G1 X101.133 Y159.785 E5.42195
G1 X105.007 Y160.612 E5.50505
G1 X106.917 Y161.505 E5.54928
G1 X108.674 Y162.671 E5.59349
G1 X111.695 Y165.815 E5.68495
G1 X112.852 Y167.770 E5.73260
G1 X113.632 Y169.745 E5.77715
G1 X114.185 Y172.581 E5.83775
G1 X114.207 Y185.710 E6.11314
G1 X113.576 Y186.430 F18000.000
G1 F1200
G1 X127.676 Y186.477 E6.40890
G1 X130.305 Y187.044 E6.46530
G1 X132.159 Y187.818 E6.50744
G1 X133.872 Y188.858 E6.54948
G1 X136.309 Y191.100 E6.61894
G1 X138.181 Y193.841 E6.68856
G1 X139.159 Y196.381 E6.74565
G1 X139.590 Y199.064 E6.80264
G1 X139.583 Y211.544 E7.06441
G1 X139.356 Y213.010 E7.09554
G1 X139.590 Y214.547 E7.12814
G1 X139.590 Y226.922 E7.38771
G1 X139.250 Y229.263 E7.43734
G1 X138.477 Y231.560 E7.48818
G1 X136.380 Y234.820 E7.56947
G1 X133.526 Y237.396 E7.65011
G1 X132.109 Y238.208 E7.68436
G1 X130.596 Y238.866 E7.71896
G1 X127.073 Y239.583 E7.79438
G1 X73.078 Y239.590 E8.92694
G1 X70.737 Y239.250 E8.97657
G1 X68.440 Y238.477 E9.02740
G1 X65.180 Y236.380 E9.10869
G1 X62.604 Y233.526 E9.18934
G1 X61.792 Y232.109 E9.22359
G1 X61.134 Y230.596 E9.25819
G1 X60.417 Y227.073 E9.33360
G1 X60.410 Y173.106 E10.46559
G1 X60.741 Y170.765 E10.51517
G1 X61.497 Y168.503 E10.56519
G1 X63.371 Y165.475 E10.63988
G1 X65.909 Y163.026 E10.71387
G1 X68.348 Y161.568 E10.77348
G1 X70.081 Y160.924 E10.81226
G1 X71.880 Y160.524 E10.85090
G1 X85.479 Y160.414 E11.13616
G1 X87.003 Y160.646 E11.16849
G1 X88.551 Y160.410 E11.20133
G1 X101.099 Y160.417 E11.46454
G1 X104.773 Y161.200 E11.54333
G1 X106.588 Y162.045 E11.58532
G1 X108.295 Y163.178 E11.62828
G1 X111.213 Y166.225 E11.71677
G1 X112.295 Y168.068 E11.76161
G1 X113.018 Y169.896 E11.80284
G1 X113.553 Y172.613 E11.86092
G1 X113.576 Y186.340 E12.14885
G1 X112.945 Y187.060 F18000.000
G1 F1200
G1 X127.640 Y187.109 E12.45709
G1 X130.141 Y187.655 E12.51078
G1 X131.893 Y188.391 E12.55063
G1 X133.467 Y189.345 E12.58924
G1 X135.854 Y191.540 E12.65727
G1 X137.637 Y194.165 E12.72383
G1 X138.557 Y196.575 E12.77794
G1 X138.958 Y199.089 E12.83132
G1 X138.951 Y211.518 E13.09203
G1 X138.716 Y213.009 E13.12370
G1 X138.958 Y214.571 E13.15685
G1 X138.958 Y226.899 E13.41542
G1 X138.629 Y229.143 E13.46299
G1 X137.891 Y231.321 E13.51122
G1 X135.924 Y234.379 E13.58750
G1 X133.182 Y236.865 E13.66513
G1 X131.810 Y237.651 E13.69828
G1 X130.376 Y238.273 E13.73107
G1 X126.979 Y238.958 E13.80375
G1 X73.101 Y238.958 E14.93386
G1 X70.857 Y238.629 E14.98143
G1 X68.679 Y237.891 E15.02967
G1 X65.621 Y235.924 E15.10594
G1 X63.135 Y233.182 E15.18357
G1 X62.349 Y231.810 E15.21672
G1 X61.727 Y230.376 E15.24951
G1 X61.042 Y226.979 E15.32219
G1 X61.042 Y173.128 E16.45173
G1 X61.363 Y170.884 E16.49929
G1 X62.084 Y168.740 E16.54673
G1 X63.886 Y165.844 E16.61829
G1 X66.321 Y163.507 E16.68906
G1 X68.596 Y162.150 E16.74464
G1 X70.240 Y161.536 E16.78145
G1 X71.984 Y161.148 E16.81892
G1 X85.458 Y161.046 E17.10154
G1 X87.003 Y161.285 E17.13434
G1 X88.575 Y161.042 E17.16771
G1 X101.066 Y161.049 E17.42971
G1 X104.539 Y161.788 E17.50418
G1 X106.299 Y162.608 E17.54491
G1 X107.915 Y163.684 E17.58563
G1 X110.729 Y166.633 E17.67114
G1 X111.736 Y168.365 E17.71316
G1 X112.404 Y170.048 E17.75113
G1 X112.921 Y172.645 E17.80667
G1 X112.945 Y186.970 E18.10714
G1 X112.314 Y187.690 F18000.000
G1 F1200
G1 X127.604 Y187.741 E18.42785
G1 X129.976 Y188.266 E18.47881
G1 X131.587 Y188.945 E18.51548
G1 X133.065 Y189.833 E18.55164
G1 X135.353 Y191.928 E18.61672
G1 X137.061 Y194.427 E18.68021
G1 X137.938 Y196.709 E18.73149
G1 X138.326 Y199.114 E18.78258
G1 X138.319 Y211.492 E19.04223
G1 X138.076 Y213.008 E19.07443
G1 X138.326 Y214.597 E19.10815
G1 X138.326 Y226.875 E19.36571
G1 X138.008 Y229.021 E19.41121
G1 X137.305 Y231.079 E19.45681
G1 X135.416 Y234.001 E19.52980
G1 X132.837 Y236.333 E19.60273
G1 X131.542 Y237.078 E19.63407
G1 X130.155 Y237.679 E19.66578
G1 X126.948 Y238.326 E19.73440
G1 X73.125 Y238.326 E20.86336
G1 X70.979 Y238.008 E20.90886
G1 X68.921 Y237.305 E20.95447
G1 X65.999 Y235.416 E21.02745
G1 X63.667 Y232.837 E21.10039
G1 X62.922 Y231.542 E21.13172
G1 X62.321 Y230.155 E21.16343
G1 X61.674 Y226.948 E21.23205
G1 X61.674 Y173.151 E22.36046
G1 X61.984 Y171.003 E22.40598
G1 X62.671 Y168.977 E22.45084
G1 X64.353 Y166.271 E22.51768
G1 X66.677 Y164.031 E22.58539
G1 X68.844 Y162.732 E22.63839
G1 X70.440 Y162.136 E22.67412
G1 X72.088 Y161.773 E22.70951
G1 X85.436 Y161.678 E22.98950
G1 X87.003 Y161.925 E23.02277
G1 X88.600 Y161.674 E23.05668
G1 X101.033 Y161.681 E23.31746
G1 X104.306 Y162.376 E23.38764
G1 X105.969 Y163.148 E23.42610
G1 X107.535 Y164.190 E23.46556
G1 X110.245 Y167.041 E23.54806
G1 X111.158 Y168.621 E23.58633
G1 X111.790 Y170.202 E23.62205
G1 X112.289 Y172.677 E23.67502
G1 X112.314 Y187.600 E23.98802
G1 X111.683 Y188.319 F18000.000
G1 F1200
G1 X127.567 Y188.373 E24.32119
G1 X129.809 Y188.876 E24.36939
G1 X131.282 Y189.499 E24.40294
G1 X132.662 Y190.322 E24.43663
G1 X134.899 Y192.369 E24.50024
G1 X136.517 Y194.752 E24.56065
G1 X137.320 Y196.843 E24.60763
G1 X137.694 Y199.139 E24.65644
G1 X137.687 Y211.466 E24.91500
G1 X137.435 Y213.007 E24.94775
G1 X137.693 Y214.622 E24.98205
G1 X137.693 Y226.852 E25.23857
G1 X137.387 Y228.899 E25.28198
G1 X136.720 Y230.837 E25.32498
G1 X134.961 Y233.561 E25.39301
G1 X132.492 Y235.803 E25.46294
G1 X131.243 Y236.521 E25.49317
G1 X129.935 Y237.086 E25.52305
G1 X126.917 Y237.693 E25.58763
G1 X73.148 Y237.693 E26.71544
G1 X71.101 Y237.387 E26.75885
G1 X69.163 Y236.720 E26.80184
G1 X66.439 Y234.961 E26.86987
G1 X64.197 Y232.492 E26.93980
G1 X63.479 Y231.243 E26.97003
G1 X62.914 Y229.935 E26.99992
G1 X62.307 Y226.917 E27.06450
G1 X62.307 Y173.173 E28.19178
G1 X62.592 Y171.178 E28.23405
G1 X63.257 Y169.215 E28.27752
G1 X64.868 Y166.640 E28.34123
G1 X67.088 Y164.512 E28.40574
G1 X69.093 Y163.313 E28.45474
G1 X70.599 Y162.749 E28.48847
G1 X72.191 Y162.397 E28.52268
G1 X85.413 Y162.310 E28.80002
G1 X87.003 Y162.566 E28.83378
G1 X88.625 Y162.306 E28.86825
G1 X100.999 Y162.313 E29.12780
G1 X104.072 Y162.965 E29.19368
G1 X105.680 Y163.710 E29.23087
G1 X107.153 Y164.696 E29.26804
G1 X109.759 Y167.448 E29.34754
G1 X110.580 Y168.877 E29.38212
G1 X111.177 Y170.357 E29.41558
G1 X111.657 Y172.710 E29.46596
G1 X111.683 Y188.229 E29.79148
G1 X111.052 Y188.949 F18000.000
G1 F1200
G1 X127.529 Y189.005 E30.13710
G1 X129.640 Y189.486 E30.18251
G1 X131.015 Y190.072 E30.21386
G1 X132.260 Y190.810 E30.24421
G1 X134.444 Y192.810 E30.30633
G1 X135.972 Y195.074 E30.36363
G1 X136.717 Y197.036 E30.40766
G1 X137.062 Y199.164 E30.45287
G1 X137.055 Y211.439 E30.71034
G1 X136.795 Y213.006 E30.74365
G1 X137.061 Y214.648 E30.77854
G1 X137.061 Y226.828 E31.03404
G1 X136.780 Y228.720 E31.07416
G1 X136.135 Y230.594 E31.11572
G1 X134.453 Y233.182 E31.18046
G1 X132.147 Y235.272 E31.24573
G1 X130.975 Y235.948 E31.27411
G1 X129.715 Y236.493 E31.30292
G1 X126.885 Y237.061 E31.36345
G1 X73.172 Y237.061 E32.49011
G1 X71.280 Y236.780 E32.53023
G1 X69.406 Y236.135 E32.57180
G1 X66.818 Y234.453 E32.63654
G1 X64.728 Y232.147 E32.70181
G1 X64.052 Y230.975 E32.73019
G1 X63.507 Y229.715 E32.75900
G1 X62.939 Y226.885 E32.81953
G1 X62.939 Y173.196 E33.94567
G1 X63.213 Y171.298 E33.98590
G1 X63.843 Y169.455 E34.02675
G1 X65.381 Y167.011 E34.08733
G1 X67.498 Y164.994 E34.14865
G1 X69.341 Y163.895 E34.19367
G1 X70.799 Y163.349 E34.22632
G1 X72.294 Y163.022 E34.25841
G1 X85.390 Y162.943 E34.53312
G1 X87.002 Y163.206 E34.56738
G1 X88.651 Y162.938 E34.60242
G1 X100.966 Y162.945 E34.86073
G1 X103.839 Y163.553 E34.92232
G1 X105.392 Y164.273 E34.95823
G1 X106.771 Y165.200 E34.99309
G1 X109.273 Y167.853 E35.06958
G1 X110.002 Y169.135 E35.10050
G1 X110.564 Y170.514 E35.13175
G1 X111.025 Y172.744 E35.17950
G1 X111.052 Y188.859 E35.51753
G1 X110.421 Y189.579 F18000.000
G1 F1200
G1 X127.491 Y189.637 E35.87559
G1 X129.470 Y190.095 E35.91819
G1 X130.713 Y190.628 E35.94655
G1 X131.858 Y191.299 E35.97440
G1 X133.990 Y193.251 E36.03502
G1 X135.395 Y195.334 E36.08774
G1 X136.099 Y197.171 E36.12900
G1 X136.429 Y199.190 E36.17191
G1 X136.423 Y211.412 E36.42827
G1 X136.154 Y213.005 E36.46215
G1 X136.429 Y214.674 E36.49764
G1 X136.429 Y226.805 E36.75208
G1 X136.160 Y228.597 E36.79009
G1 X135.551 Y230.350 E36.82903
G1 X133.997 Y232.742 E36.88885
G1 X131.802 Y234.742 E36.95114
G1 X130.676 Y235.391 E36.97840
G1 X129.495 Y235.899 E37.00536
G1 X126.854 Y236.429 E37.06187
G1 X73.195 Y236.429 E38.18737
G1 X71.403 Y236.160 E38.22539
G1 X69.650 Y235.551 E38.26432
G1 X67.258 Y233.997 E38.32414
G1 X65.258 Y231.802 E38.38643
G1 X64.609 Y230.676 E38.41369
G1 X64.101 Y229.495 E38.44065
G1 X63.571 Y226.854 E38.49716
G1 X63.571 Y173.220 E39.62215
G1 X63.834 Y171.420 E39.66030
G1 X64.428 Y169.697 E39.69853
G1 X65.894 Y167.383 E39.75598
G1 X67.906 Y165.478 E39.81411
G1 X69.591 Y164.477 E39.85521
G1 X70.957 Y163.961 E39.88584
G1 X72.396 Y163.646 E39.91674
G1 X85.366 Y163.575 E40.18880
G1 X87.002 Y163.847 E40.22357
G1 X88.677 Y163.571 E40.25919
G1 X100.933 Y163.577 E40.51626
G1 X103.607 Y164.142 E40.57358
G1 X105.060 Y164.812 E40.60716
G1 X106.389 Y165.705 E40.64074
G1 X108.743 Y168.199 E40.71266
G1 X109.442 Y169.429 E40.74234
G1 X109.967 Y170.725 E40.77168
G1 X110.393 Y172.777 E40.81563
G1 X110.421 Y189.489 E41.16618
G1 X109.790 Y190.209 F18000.000
G1 F1200
G1 X127.452 Y190.269 E41.53666
G1 X129.297 Y190.703 E41.57641
G1 X130.412 Y191.184 E41.60188
G1 X131.457 Y191.789 E41.62721
G1 X133.535 Y193.691 E41.68629
G1 X134.849 Y195.655 E41.73585
G1 X135.496 Y197.364 E41.77420
G1 X135.797 Y199.215 E41.81353
G1 X135.791 Y211.385 E42.06879
G1 X135.512 Y213.003 E42.10324
G1 X135.797 Y214.701 E42.13934
G1 X135.797 Y226.780 E42.39271
G1 X135.539 Y228.472 E42.42860
G1 X134.967 Y230.105 E42.46491
G1 X133.541 Y232.304 E42.51987
G1 X131.455 Y234.212 E42.57917
G1 X130.409 Y234.818 E42.60453
G1 X129.276 Y235.305 E42.63040
G1 X126.823 Y235.797 E42.68288
G1 X73.220 Y235.797 E43.80722
G1 X71.528 Y235.539 E43.84310
G1 X69.895 Y234.967 E43.87941
G1 X67.696 Y233.541 E43.93437
G1 X65.788 Y231.455 E43.99367
G1 X65.182 Y230.409 E44.01904
G1 X64.695 Y229.276 E44.04490
G1 X64.203 Y226.823 E44.09738
G1 X64.203 Y173.243 E45.22122
G1 X64.455 Y171.543 E45.25728
G1 X65.013 Y169.940 E45.29287
G1 X66.405 Y167.757 E45.34719
G1 X68.313 Y165.963 E45.40213
G1 X69.839 Y165.059 E45.43933
G1 X71.158 Y164.561 E45.46889
G1 X72.497 Y164.271 E45.49763
G1 X85.341 Y164.207 E45.76705
G1 X87.001 Y164.488 E45.80236
G1 X88.703 Y164.203 E45.83856
G1 X100.900 Y164.209 E46.09439
G1 X103.374 Y164.731 E46.14743
G1 X104.772 Y165.375 E46.17972
G1 X106.006 Y166.209 E46.21096
G1 X108.213 Y168.545 E46.27836
G1 X108.865 Y169.686 E46.30592
G1 X109.371 Y170.936 E46.33421
G1 X109.761 Y172.810 E46.37437
G1 X109.790 Y190.119 E46.73743
G1 X109.159 Y190.840 F18000.000
G1 F1200
G1 X127.344 Y190.893 E47.11887
G1 X129.074 Y191.296 E47.15613
G1 X130.112 Y191.741 E47.17982
G1 X131.110 Y192.319 E47.20401
G1 X133.079 Y194.130 E47.26013
G1 X134.272 Y195.914 E47.30514
G1 X134.878 Y197.500 E47.34075
G1 X135.165 Y199.241 E47.37777
G1 X135.159 Y211.356 E47.63189
G1 X134.871 Y213.002 E47.66693
G1 X135.165 Y214.728 E47.70366
G1 X135.165 Y226.756 E47.95594
G1 X134.919 Y228.345 E47.98968
G1 X134.384 Y229.859 E48.02336
G1 X133.083 Y231.866 E48.07352
G1 X131.108 Y233.683 E48.12981
G1 X130.109 Y234.261 E48.15403
G1 X129.057 Y234.711 E48.17802
G1 X126.792 Y235.165 E48.22649
G1 X73.244 Y235.165 E49.34966
G1 X71.655 Y234.919 E49.38339
G1 X70.141 Y234.384 E49.41708
G1 X68.134 Y233.083 E49.46723
G1 X66.317 Y231.108 E49.52353
G1 X65.739 Y230.109 E49.54775
G1 X65.289 Y229.057 E49.57173
G1 X64.835 Y226.792 E49.62020
G1 X64.835 Y173.266 E50.74291
G1 X65.062 Y171.722 E50.77565
G1 X65.598 Y170.183 E50.80984
G1 X66.868 Y168.189 E50.85942
G1 X68.667 Y166.487 E50.91137
G1 X70.090 Y165.639 E50.94612
G1 X71.315 Y165.174 E50.97360
